outputs/icons/enterprise/certificate_round.svg

<svg xmlns="http://www.w3.org/2000/svg" width="1200" height="1200" fill="none"><path fill="#000" d="M100 100h1000.06v750.045h-100.005v-50h50.005V150.003H150.003v650.042H550.03v50H100z"/><path fill="#000" d="M900.05 300.012H300.012v50.003H900.05zM950.055 400.024H250.009v50.004h700.046zM950.05 775.035l-48.25-34 24.815-53.505-58.755-5.315-5.315-58.75-53.5 24.81-34.005-48.25-34 48.25-53.505-24.81-5.31 58.75-58.755 5.315 24.815 53.505-48.255 34 48.255 34-24.815 53.505 58.755 5.315 5.31 58.75 53.505-24.81 34 48.25 34.005-48.25 53.5 24.81 5.315-58.75 58.755-5.315-24.815-53.505zM737.54 965.31l37.5 53.25 37.505-53.25 37.375 17.375v117.32l-74.88-24.94-74.88 24.94v-117.32z"/></svg>

<svg width="1200" height="1200" viewBox="0 0 1200 1200" fill="none" xmlns="http://www.w3.org/2000/svg"><path d="M100 100H1100.06V850.045H1000.055V800.045H1050.06V150.003H150.003V800.045H550.03V850.045H100V100Z" fill="black"/><path d="M900.05 300.012H300.012V350.015H900.05V300.012Z" fill="black"/><path d="M950.055 400.024H250.009V450.028H950.055V400.024Z" fill="black"/><path d="M950.05 775.035L901.8 741.035L926.615 687.53L867.86 682.215L862.545 623.465L809.045 648.275L775.04 600.025L741.04 648.275L687.535 623.465L682.225 682.215L623.47 687.53L648.285 741.035L600.03 775.035L648.285 809.035L623.47 862.54L682.225 867.855L687.535 926.605L741.04 901.795L775.04 950.045L809.045 901.795L862.545 926.605L867.86 867.855L926.615 862.54L901.8 809.035L950.05 775.035Z" fill="black"/><path d="M737.54 965.31L775.04 1018.56L812.545 965.31L849.92 982.685V1100.005L775.04 1075.065L700.16 1100.005V982.685L737.54 965.31Z" fill="black"/></svg>
